packages/ui-icons/svg/Line/twitter-boxed.svg

<svg viewBox="0 0 1920 1920" version="1.1" xmlns="http://www.w3.org/2000/svg">
    <path d="M1643.82494,518.605647 C1629.36847,529.899765 1621.23671,547.405647 1622.14024,565.702118 C1622.70494,582.078588 1623.15671,598.455059 1623.15671,615.057412 C1623.15671,1145.42918 1249.66024,1694.21035 624.643765,1694.21035 C502.441412,1694.21035 382.046118,1669.928 268.879059,1623.05741 C405.312,1600.46918 535.307294,1540.61035 643.843765,1449.24094 C661.801412,1433.99388 668.464941,1409.37271 660.672,1387.23624 C652.879059,1365.09976 632.097882,1350.07859 608.493176,1349.51388 C503.119059,1347.368 407.683765,1286.83153 352.116706,1192.29976 C390.177882,1191.17035 431.175529,1185.18447 461.895529,1176.26212 C486.742588,1169.03388 503.457882,1145.88094 502.667294,1120.13035 C501.763765,1094.26682 483.467294,1072.35624 458.168471,1066.82212 C346.017882,1042.53976 263.457882,950.040941 235.561412,822.982118 C267.636706,829.419765 297.904941,831.452706 314.620235,831.904471 C339.241412,834.615059 361.942588,817.448 370.074353,793.843294 C378.093176,770.351529 369.848471,744.262118 349.632,729.692706 C271.589647,673.448 188.013176,568.525647 188.013176,443.273882 C188.013176,412.440941 191.853176,381.946824 199.194353,352.469176 C394.356706,569.655059 660.672,700.779765 943.024941,716.026824 C961.999059,717.043294 977.697882,709.589176 989.104941,696.262118 C1000.512,682.935059 1005.02965,664.864471 1001.41553,647.697412 C995.768471,622.059765 992.944941,595.518588 992.944941,568.638588 C992.944941,379.688 1134.00847,225.975059 1307.37318,225.975059 C1394.56376,225.975059 1475.65553,263.810353 1535.51435,332.704471 C1548.84141,348.064471 1569.84847,355.179765 1589.72612,350.888 C1618.41318,344.789176 1646.64847,337.109176 1674.432,327.735059 C1657.94259,344.450353 1639.75906,359.358588 1619.99435,372.120941 C1597.74494,386.464471 1588.48376,414.135059 1597.51906,438.982118 C1606.55435,463.829176 1632.07906,478.850353 1657.82965,475.575059 C1672.512,473.655059 1687.08141,471.396235 1701.53788,468.572706 C1683.24141,486.304471 1664.04141,503.019765 1643.82494,518.605647 M1905.50965,318.925647 C1888.79435,300.290353 1861.91435,295.095059 1839.10024,305.711529 C1835.03435,307.631529 1830.96847,309.551529 1826.78965,311.471529 C1843.84376,281.203294 1857.73553,248.789176 1867.78729,214.793882 C1874.56376,192.205647 1866.54494,167.810353 1847.68376,153.579765 C1828.70965,139.462118 1803.18494,138.332706 1783.19435,151.095059 C1724.91671,188.478588 1662.23435,215.923294 1596.72847,233.203294 C1518.46024,156.403294 1414.78024,113.033882 1307.37318,113.033882 C1071.77788,113.033882 880.003765,317.457412 880.003765,568.638588 C880.003765,578.125647 880.229647,587.612706 880.794353,596.986824 C625.999059,564.008 390.516706,424.977412 226.639059,208.469176 C215.119059,193.222118 196.483765,185.429176 177.396706,186.332706 C158.196706,187.800941 141.029647,198.869176 131.881412,215.810353 C94.7237647,284.704471 75.072,363.424471 75.072,443.273882 C75.072,529.899765 103.759059,608.280941 145.321412,674.012706 C125.895529,683.048 112.342588,702.586824 112.342588,725.400941 L112.342588,728.224471 L112.342588,730.596235 C112.342588,870.417412 162.149647,992.506824 245.839059,1075.06682 C236.803765,1078.00329 228.559059,1083.31153 221.895529,1090.42682 C208.455529,1105.10918 203.712,1125.66447 209.359059,1144.75153 C250.130824,1281.74918 347.147294,1386.89741 467.768471,1434.55859 C344.888471,1504.13035 199.081412,1531.688 63.3261176,1515.31153 C36.7849412,1511.35859 12.8414118,1527.17035 3.69317647,1551.33976 C-5.568,1575.62212 3.01552941,1603.17976 24.4743529,1617.86212 C204.163765,1741.64565 411.749647,1807.15153 624.643765,1807.15153 C1320.36141,1807.15153 1736.09788,1200.99624 1736.09788,615.057412 C1736.09788,606.473882 1735.98494,598.003294 1735.75906,589.532706 C1804.31435,532.384471 1863.26965,464.168 1911.49553,386.464471 C1924.70965,365.118588 1922.33788,337.560941 1905.50965,318.925647" stroke="none" stroke-width="1" fill-rule="evenodd"/>
</svg>

<svg viewBox="0 0 1920 1920" version="1.1" xmlns="http://www.w3.org/2000/svg">
    <path d="M1643.825 518.606c-14.457 11.294-22.588 28.8-21.685 47.096.565 16.377 1.017 32.753 1.017 49.355 0 530.372-373.497 1079.153-998.513 1079.153-122.203 0-242.598-24.282-355.765-71.153 136.433-22.588 266.428-82.447 374.965-173.816 17.957-15.247 24.62-39.868 16.828-62.005-7.793-22.136-28.574-37.157-52.179-37.722-105.374-2.146-200.81-62.682-256.376-157.214 38.06-1.13 79.059-7.116 109.779-16.038 24.847-7.228 41.562-30.381 40.771-56.132-.903-25.863-19.2-47.774-44.499-53.308-112.15-24.282-194.71-116.781-222.607-243.84 32.076 6.438 62.344 8.47 79.06 8.922 24.62 2.711 47.322-14.456 55.453-38.06 8.02-23.492-.226-49.582-20.442-64.151-78.042-56.245-161.619-161.167-161.619-286.42 0-30.832 3.84-61.326 11.181-90.804 195.163 217.186 461.478 348.31 743.83 363.558 18.975 1.016 34.674-6.438 46.08-19.765 11.408-13.327 15.926-31.398 12.312-48.565-5.648-25.637-8.471-52.178-8.471-79.058 0-188.951 141.063-342.664 314.428-342.664 87.19 0 168.283 37.835 228.141 106.73 13.327 15.36 34.334 22.475 54.212 18.183 28.687-6.099 56.922-13.779 84.706-23.153-16.49 16.715-34.673 31.624-54.438 44.386-22.25 14.343-31.51 42.014-22.475 66.861s34.56 39.868 60.31 36.593c14.683-1.92 29.252-4.179 43.709-7.002-18.297 17.731-37.497 34.447-57.713 50.033m261.685-199.68c-16.716-18.636-43.596-23.83-66.41-13.214-4.066 1.92-8.132 3.84-12.31 5.76 17.054-30.269 30.946-62.683 40.997-96.678 6.777-22.588-1.242-46.984-20.103-61.214-18.974-14.118-44.5-15.247-64.49-2.485-58.277 37.384-120.96 64.828-186.466 82.108-78.268-76.8-181.948-120.17-289.355-120.17-235.595 0-427.37 204.424-427.37 455.606 0 9.487.227 18.974.791 28.348C626 564.008 390.517 424.977 226.64 208.469c-11.52-15.247-30.155-23.04-49.242-22.136-19.2 1.468-36.367 12.536-45.516 29.477-37.157 68.894-56.809 147.614-56.809 227.464 0 86.626 28.687 165.007 70.25 230.739-19.426 9.035-32.98 28.574-32.98 51.388v5.195c0 139.821 49.808 261.91 133.497 344.47-9.035 2.937-17.28 8.246-23.943 15.36a56.566 56.566 0 0 0-12.537 54.326c40.772 136.997 137.788 242.145 258.41 289.807-122.88 69.571-268.688 97.129-404.443 80.753-26.541-3.953-50.485 11.858-59.633 36.028-9.261 24.282-.677 51.84 20.781 66.522 179.69 123.784 387.276 189.29 600.17 189.29 695.717 0 1111.454-606.156 1111.454-1192.095 0-8.583-.113-17.054-.339-25.524 68.555-57.149 127.51-125.365 175.737-203.069 13.214-21.345 10.842-48.903-5.986-67.538" stroke="none" stroke-width="1" fill-rule="evenodd"/>
</svg>
